X: 18821
T: Il Maggio Di Montereggio
R: polka
M: 2/4
K: Aminor
M:4/4
zE Ac|e2e2dcBA|B4zE^GB|d2d2edcB|A3A ABcd|
e2e2a2g2|f3f/g/ aagf|ecde c2B2|1 A4:|2 A4e2ee||
|:e2B>c dddd|e2B>c ddef|e2ef edcB|A4ABcd|
e2e2a2g2|f3f/g/ aagf|ecde c2B2|1 A4e2ee:|2 A4z2Ac||
e2e2g3g|^f2e4e=f|e2Bc d2c2|B2A3A Bc|
d2ddd2d2|c2B4Bc|d2e2f2g2|f2e4ef|e2Bcd2c2|B2A4||

